tokens/aztec.svg

<svg xmlns="http://www.w3.org/2000/svg" fill="none" viewBox="0 0 48 48">
  <path fill="#3b0902" d="M0 0h48v48H0z"/>
  <path fill="#d6ff14" fill-rule="evenodd" d="M24 6.8 41.2 24 24 41.2 6.8 24zm0 5.4L35.8 24 24 35.8 12.2 24z" clip-rule="evenodd"/>
  <path fill="#d6ff14" fill-rule="evenodd" d="m24 16.4 7.6 7.6-7.6 7.6-7.6-7.6zm0 4.4 3.2 3.2-3.2 3.2-3.2-3.2z" clip-rule="evenodd"/>
</svg>

<svg xmlns="http://www.w3.org/2000/svg" width="32" height="32" viewBox="0 0 48 48" fill="none">
    <rect width="48" height="48" fill="#3B0902"/>
    <path fill="#D6FF14" fill-rule="evenodd" clip-rule="evenodd" d="M24 6.8L41.2 24L24 41.2L6.8 24L24 6.8ZM24 12.2L35.8 24L24 35.8L12.2 24L24 12.2Z"/>
    <path fill="#D6FF14" fill-rule="evenodd" clip-rule="evenodd" d="M24 16.4L31.6 24L24 31.6L16.4 24L24 16.4ZM24 20.8L27.2 24L24 27.2L20.8 24L24 20.8Z"/>
</svg>
